X:1
T:Rights of Man
Z:Rights of Man
L:1/8
M:4/4
I:linebreak $
K:G
V:1 treble
V:1
 GA |:"Em" (3(BcB) (3(ABA) (3(GAG) (3(FGF) | EFGA B2 (ef) | gfed edcB |$
 "Am(C)"cBAG "B"F2 GA |"Em"  (3(BcB) (3(ABA) (3(GAG) (3(FGF) | EFGA B2 (ef) |$
 gfed"B" Bg (3fgf |1 "Em" e2 B2 E2 GA :|2"Em"  e2 B2 E2 ga |:"Em" bgbg efga |$
 bagf egfe |"D" d^cde fefg | afdf a2 (gf) | "Em" dBeg "D" fdfa |$
"Em" gfga bgee |  gfed "B"Bg (3fgf |1"Em" e2 B2 E2 ga :|2"Em" e2 B2 E2 |]
